resources/icons/20px/menu-open.svg

<svg xmlns="http://www.w3.org/2000/svg" viewBox="0 0 20 20">
  <path d="M12 9H1c-.55 0-1 .45-1 1s.45 1 1 1h11c.55 0 1-.45 1-1s-.45-1-1-1m0 5H1c-.55 0-1 .45-1 1s.45 1 1 1h11c.55 0 1-.45 1-1s-.45-1-1-1m0-10H1c-.55 0-1 .45-1 1s.45 1 1 1h11c.55 0 1-.45 1-1s-.45-1-1-1m7.71 5.29-3-3A1.003 1.003 0 0 0 15 7v6a1.003 1.003 0 0 0 1.71.71l3-3c.18-.18.29-.43.29-.71s-.11-.53-.29-.71"/>
</svg>

<?xml version="1.0" encoding="utf-8"?>
<!-- Generator: Adobe Illustrator 17.1.0, SVG Export Plug-In . SVG Version: 6.00 Build 0)  -->
<!DOCTYPE svg PUBLIC "-//W3C//DTD SVG 1.1//EN" "http://www.w3.org/Graphics/SVG/1.1/DTD/svg11.dtd">
<svg version="1.1" id="Layer_1" xmlns="http://www.w3.org/2000/svg" xmlns:xlink="http://www.w3.org/1999/xlink" x="0px" y="0px"
	 viewBox="0 0 20 20" enable-background="new 0 0 20 20" xml:space="preserve">
<g id="hamburger_open_3_">
	<g>
		<path fill-rule="evenodd" clip-rule="evenodd" d="M12,9H1c-0.55,0-1,0.45-1,1c0,0.55,0.45,1,1,1h11c0.55,0,1-0.45,1-1
			C13,9.45,12.55,9,12,9z M12,14H1c-0.55,0-1,0.45-1,1c0,0.55,0.45,1,1,1h11c0.55,0,1-0.45,1-1C13,14.45,12.55,14,12,14z M12,4H1
			C0.45,4,0,4.45,0,5c0,0.55,0.45,1,1,1h11c0.55,0,1-0.45,1-1C13,4.45,12.55,4,12,4z M19.71,9.29l-3-3C16.53,6.11,16.28,6,16,6
			c-0.55,0-1,0.45-1,1v6c0,0.55,0.45,1,1,1c0.28,0,0.53-0.11,0.71-0.29l3-3C19.89,10.53,20,10.28,20,10
			C20,9.72,19.89,9.47,19.71,9.29z"/>
	</g>
</g>
</svg>
